X: 123
T: Honble. Captn. Elliot's Quick Step
C: by John Pringle
B: John Pringle "Collection of Reels Strathspeys & Jigs", 1801 p.12#3
Z: 2011 John Chambers <jc:trillian.mit.edu>
R: reel, polka
M: 2/4
L: 1/16
K: Bb
V: 1
F2 |\
B4 (ce).c.A | B2d2 {=e}f4 | e2c2 d2B2 | G2cB AFGA |
~B4 cecA | ~d4 (eg).f.e | d2B2 G2A2 | {c}B4 B2 :|
|: F2 |\
A2B2 c2A2 | F2fe {e}~d4 | d2g2 | fedc | BAcB AGFE |
D2d2 E2e2 | F2f2 G2g2 | f2ef e2A2 | {c}B4 B4 :|
V: 2 clef=bass middle=d
z2 |\
bf'd'f' c'f'e'f' | bf'd'f' bf'd'f' | af'c'f' bf'd'f' | ec'=ec' f2z2 |
Bfdf cfdf | Bfdf Bgeg | Bfdf cfdf | zbfd B2 :|
|: z2 |\
fc'gc' ac'fc' | Bbcb dbBb | ebgb =ec'gc' | fc'ac' f2z2 |
Bbfb cafa | dbfb ebgb | fd'bd' fe'c'e' | zbfd B2 :|

%%sep 2 1 500

